X: 26010
T: Mazurca De Comptoir
R: mazurka
M: 3/4
K: Dmajor
EF G2 GD|GA B2 BA|Bc BA GF|EF E2 DD|
EF G2 GD|GA B2 BA|Bc BA GF|EF G3:|
ED F2 FD|ED F2 FD|ED cB AG|FE (3EFE DD|
ED F2 FD|ED F2 FD|ED cB AG|EF G3:|
Bc d2 dA|de f2 fd|fg fe dc|Bc B2 AA|
Bc d2 dA|de fA fd|f<g fe d<c|Bc d3:|
B<A c2 cA|B<A c2 cA|B<A g>f e<d|cB (3BcB AA|
BA c2 cA|BA c2 cA|BA g<f e<d|B>c d3:|

